static/assets/images/icons/podium.svg

<svg width="256" height="256" viewBox="0 0 256 256" fill="none" xmlns="http://www.w3.org/2000/svg">
<path d="M50.9312 159.197H68.9767V166.992H39.1764V159.197L54.145 145.948C55.4816 144.736 56.4703 143.551 57.1113 142.394C57.7522 141.238 58.0725 140.035 58.0722 138.786C58.0722 136.858 57.4222 135.307 56.1222 134.131C54.8409 132.956 53.1291 132.368 50.9866 132.368C49.3384 132.368 47.5348 132.726 45.5758 133.443C43.6164 134.14 41.5198 135.187 39.2861 136.583V127.548C41.6664 126.758 44.0195 126.162 46.3455 125.758C48.6705 125.335 50.9498 125.123 53.1836 125.123C58.0911 125.123 61.8997 126.207 64.6094 128.374C67.3375 130.541 68.7016 133.562 68.7016 137.436C68.7016 139.677 68.125 141.771 66.9719 143.717C65.8187 145.645 63.3925 148.234 59.6931 151.485L50.9322 159.197M214.703 177.671C217.467 178.387 219.563 179.636 220.992 181.418C222.439 183.18 223.162 185.43 223.162 188.166C223.162 192.243 221.605 195.346 218.493 197.476C215.38 199.588 210.839 200.645 204.869 200.645C202.764 200.645 200.649 200.47 198.525 200.12C196.4 199.785 194.306 199.278 192.262 198.605V190.424C194.24 191.416 196.2 192.168 198.14 192.683C200.099 193.178 202.022 193.426 203.908 193.426C206.71 193.426 208.852 192.939 210.335 191.966C211.837 190.993 212.588 189.597 212.588 187.779C212.588 185.906 211.819 184.491 210.28 183.537C208.761 182.564 206.509 182.077 203.524 182.077H199.295V175.246H203.744C206.399 175.246 208.377 174.833 209.677 174.006C210.977 173.162 211.627 171.886 211.627 170.177C211.627 168.598 210.995 167.377 209.732 166.514C208.468 165.651 206.683 165.219 204.376 165.219C202.673 165.219 200.952 165.412 199.212 165.798C197.473 166.184 195.743 166.753 194.021 167.506V159.738C196.059 159.161 198.133 158.72 200.229 158.416C202.23 158.126 204.249 157.979 206.271 157.976C211.599 157.976 215.582 158.857 218.219 160.62C220.874 162.365 222.201 165 222.201 168.526C222.201 170.932 221.57 172.906 220.306 174.448C219.042 175.972 217.174 177.046 214.703 177.671ZM119.154 84.299H128.493V57.7171L118.907 59.701V52.4839L128.438 50.5H138.49V84.2985H147.828V91.6251H119.154V84.299ZM226 225C234.284 225 241 218.284 241 210V153.304C241 145.02 234.284 138.304 226 138.304H173.5V48C173.5 39.7157 166.784 33 158.5 33H106C97.7157 33 91 39.7157 91 48V108.217H31C22.7157 108.217 16 114.933 16 123.217V210C16 218.284 22.7157 225 31 225H226Z" fill="black"/>
</svg>

<svg xmlns="http://www.w3.org/2000/svg" fill="none" viewBox="0 0 256 256"><path fill="#000" d="M50.931 159.197h18.046v7.795h-29.8v-7.795l14.968-13.249q2.005-1.818 2.966-3.554.962-1.734.961-3.608 0-2.892-1.95-4.655-1.922-1.763-5.135-1.763-2.473 0-5.411 1.075-2.94 1.046-6.29 3.14v-9.035a49 49 0 0 1 7.06-1.79 38 38 0 0 1 6.838-.635q7.361 0 11.425 3.251 4.093 3.25 4.093 9.062 0 3.362-1.73 6.281-1.73 2.892-7.279 7.768l-8.76 7.712m163.77 18.474q4.146 1.074 6.289 3.747 2.17 2.643 2.17 6.748 0 6.115-4.669 9.31-4.67 3.169-13.624 3.169-3.158 0-6.344-.525a40 40 0 0 1-6.263-1.515v-8.181q2.967 1.487 5.878 2.259 2.939.743 5.768.743 4.203 0 6.427-1.46 2.253-1.46 2.253-4.187 0-2.81-2.308-4.242-2.278-1.46-6.756-1.46h-4.229v-6.831h4.449q3.983 0 5.933-1.24 1.95-1.266 1.95-3.829 0-2.369-1.895-3.663-1.896-1.295-5.356-1.295-2.554 0-5.164.579a28 28 0 0 0-5.191 1.708v-7.768a48 48 0 0 1 6.208-1.322c2.001-.29 4.02-.437 6.042-.44q7.992 0 11.948 2.644 3.982 2.617 3.982 7.906 0 3.609-1.895 5.922-1.896 2.286-5.603 3.223m-95.549-93.372h9.339V57.717l-9.586 1.984v-7.217l9.531-1.984h10.052v33.799h9.338v7.326h-28.674zM226 225c8.284 0 15-6.716 15-15v-56.696c0-8.284-6.716-15-15-15h-52.5V48c0-8.284-6.716-15-15-15H106c-8.284 0-15 6.716-15 15v60.217H31c-8.284 0-15 6.716-15 15V210c0 8.284 6.716 15 15 15z"/></svg>
